X:0667
M:C
L:1/8
Q:1/4=120
K:D
g|Tf>ed>B  AFFd  |(AF)A>E  F2 Fg   |Tf>ed>B    A>Bd>B |(A<F)TF>D E2Eg|
  Tf>de>f  d>fB>d| A>dAF   A2 AB/c/|Td>f dc/B/ AFFd   |(A<F)TF>D E2E||
  (A<F)F>d A<FF>B|(A<F)A>E F2 F>B  | A>Bd>f   (e<fd>B)| ABdF     E2E|]

